**kern	**kern	**dynam
*part1	*part1	*part1
*staff2	*staff1	*
*I"Piano	*	*
*clefF4	*clefG2	*
*k[]	*k[]	*
=1	=1	=1
!	!LO:TX:b:i:t=leg.	!
4CC 4C	2G 2e 2g	p
2C 2E	.	.
.	4G 4c 4e	.
=	=	=
4EE 4E	2c 2g 2cc	.
2E 2G	.	.
.	4c 4e 4g	<
=	=	=
4GGG 4GG	2g 2cc 2ee	.
2G 2B	.	.
.	4f 4b 4dd	[ mp >
=	=	=
4CC 4C	4f 4b 4dd	.
2E 2G	4e 4cc	] p
.	4c 4e 4cc	.
=	=	=
4FFF 4FF	2c 2g 2b 2cc	.
2C 2F	.	.
.	4c 4f 4a 4cc	.
=	=	=
4CC 4C	2c 2e 2g 2cc	.
2E 2G	.	.
.	4e 4g 4cc	.
=	=	=
4DD 4D	2d 2f#X 2b	.
2D 2F#X	.	.
.	4c 4f# 4a	.
=	=	=
*-	*-	*-
!!!system-decoration: {(s1,s2)}
